src/lib/packages/icons/src/assets/filled/monitor-waveform.svg

<svg width="24" height="24" viewBox="0 0 24 24" fill="none" xmlns="http://www.w3.org/2000/svg">
<path d="M21 7V17C21 19 20 20 18 20H6C4 20 3 19 3 17V13.05C3 12.884 3.13405 12.75 3.30005 12.75H8C8.25 12.75 8.49 12.6199 8.62 12.4199L9.77002 10.6899L11.29 15.24C11.38 15.51 11.62 15.71 11.9 15.74C11.93 15.75 11.97 15.75 12 15.75C12.25 15.75 12.48 15.6299 12.62 15.4199L14.4 12.75H16C16.41 12.75 16.75 12.41 16.75 12C16.75 11.59 16.41 11.25 16 11.25H14C13.75 11.25 13.51 11.3801 13.38 11.5801L12.23 13.3101L10.71 8.76001C10.62 8.49001 10.38 8.29001 10.1 8.26001C9.80998 8.21001 9.54 8.35008 9.38 8.58008L7.59998 11.25H3.30005C3.13405 11.25 3 11.116 3 10.95V7C3 5 4 4 6 4H18C20 4 21 5 21 7Z" fill="currentColor"/>
</svg>

<svg xmlns="http://www.w3.org/2000/svg" width="24" height="24" fill="none"><path fill="currentColor" d="M21 7v10c0 2-1 3-3 3H6c-2 0-3-1-3-3v-3.95a.3.3 0 0 1 .3-.3H8c.25 0 .49-.13.62-.33l1.15-1.73 1.52 4.55c.09.27.33.47.61.5a.738.738 0 0 0 .72-.32l1.78-2.67H16c.41 0 .75-.34.75-.75s-.34-.75-.75-.75h-2a.75.75 0 0 0-.62.33l-1.15 1.73-1.52-4.55a.735.735 0 0 0-.61-.5.728.728 0 0 0-.72.32L7.6 11.25H3.3a.3.3 0 0 1-.3-.3V7c0-2 1-3 3-3h12c2 0 3 1 3 3Z"/></svg>
